X: 146203
M: C
L: 1/8
K: G
(dc) |\
[1,3 e2F2- FAcf | g2d2- d2 :|\
[2,4 e2F2- FGAB | (A4 G2) :|\
|: (gf) |\
edef gfga | b2d2- d2ed |\
[1,3 cBcd eABc | d2B2- B2 :|\
[2,4 cBAG FGAB | (A4 G2) :|


